app/images/icon/icon-svg/youtube.svg

<svg width="40" height="40" viewBox="0 0 40 40" fill="none" xmlns="http://www.w3.org/2000/svg">
<path fill-rule="evenodd" clip-rule="evenodd" d="M20 0C8.95599 0 0 8.95599 0 20C0 31.044 8.95599 40 20 40C31.044 40 40 31.044 40 20C40 8.95599 31.044 0 20 0ZM32.4969 20.0204C32.4969 20.0204 32.4969 24.0765 31.9824 26.0324C31.694 27.103 30.8499 27.9471 29.7794 28.2352C27.8235 28.75 20 28.75 20 28.75C20 28.75 12.197 28.75 10.2206 28.2147C9.15009 27.9266 8.30597 27.0822 8.01758 26.0117C7.50275 24.0765 7.50275 20 7.50275 20C7.50275 20 7.50275 15.9442 8.01758 13.9883C8.30566 12.9178 9.17053 12.0529 10.2206 11.7648C12.1765 11.25 20 11.25 20 11.25C20 11.25 27.8235 11.25 29.7794 11.7853C30.8499 12.0734 31.694 12.9178 31.9824 13.9883C32.5177 15.9442 32.4969 20.0204 32.4969 20.0204ZM24.0146 20L17.5089 23.7469V16.2531L24.0146 20Z" fill="#C3B9B5"/>
</svg>

<svg width="40" height="40" fill="none" xmlns="http://www.w3.org/2000/svg"><path fill-rule="evenodd" clip-rule="evenodd" d="M20 0C8.956 0 0 8.956 0 20s8.956 20 20 20 20-8.956 20-20S31.044 0 20 0zm12.497 20.02s0 4.056-.515 6.012a3.132 3.132 0 01-2.203 2.203c-1.956.515-9.779.515-9.779.515s-7.803 0-9.78-.535a3.132 3.132 0 01-2.202-2.203C7.503 24.076 7.503 20 7.503 20s0-4.056.515-6.012a3.195 3.195 0 012.203-2.223C12.177 11.25 20 11.25 20 11.25s7.823 0 9.78.535a3.132 3.132 0 012.202 2.203c.536 1.956.515 6.032.515 6.032zM24.015 20l-6.506 3.747v-7.494L24.015 20z" fill="#C3B9B5"/></svg>
